Numix-Light/16/status/indicator-keyboard-Sw-1.svg

<?xml version="1.0" encoding="UTF-8" standalone="no"?>
<svg
   xmlns:dc="http://purl.org/dc/elements/1.1/"
   xmlns:cc="http://creativecommons.org/ns#"
   xmlns:rdf="http://www.w3.org/1999/02/22-rdf-syntax-ns#"
   xmlns:svg="http://www.w3.org/2000/svg"
   xmlns="http://www.w3.org/2000/svg"
   xmlns:sodipodi="http://sodipodi.sourceforge.net/DTD/sodipodi-0.dtd"
   xmlns:inkscape="http://www.inkscape.org/namespaces/inkscape"
   viewBox="0 0 16 16"
   id="svg2"
   version="1.1"
   inkscape:version="0.91 r13725"
   sodipodi:docname="indicator-keyboard-Sw-1.svg">
  <metadata
     id="metadata14">
    <rdf:RDF>
      <cc:Work
         rdf:about="">
        <dc:format>image/svg+xml</dc:format>
        <dc:type
           rdf:resource="http://purl.org/dc/dcmitype/StillImage" />
      </cc:Work>
    </rdf:RDF>
  </metadata>
  <defs
     id="defs12" />
  <sodipodi:namedview
     pagecolor="#ffffff"
     bordercolor="#666666"
     borderopacity="1"
     objecttolerance="10"
     gridtolerance="10"
     guidetolerance="10"
     inkscape:pageopacity="0"
     inkscape:pageshadow="2"
     inkscape:window-width="459"
     inkscape:window-height="369"
     id="namedview10"
     showgrid="false"
     inkscape:zoom="14.75"
     inkscape:cx="8"
     inkscape:cy="8"
     inkscape:window-x="65"
     inkscape:window-y="24"
     inkscape:window-maximized="0"
     inkscape:current-layer="svg2" />
  <path
     style="fill:#353535;fill-opacity:1"
     d="M 1.5996094 0 C 0.71320937 2.9605947e-16 0 0.71320937 0 1.5996094 L 0 14.400391 C 2.9605947e-16 15.286791 0.71320937 16 1.5996094 16 L 14.400391 16 C 15.286791 16 16 15.286791 16 14.400391 L 16 1.5996094 C 16 0.71320937 15.286791 0 14.400391 0 L 1.5996094 0 z M 3.4804688 4.7246094 C 3.6484687 4.7246094 3.8126094 4.7357656 3.9746094 4.7597656 C 4.1366094 4.7837656 4.2877813 4.817375 4.4257812 4.859375 C 4.5697812 4.895375 4.6985 4.936375 4.8125 4.984375 C 4.9325 5.032375 5.031375 5.0846719 5.109375 5.1386719 L 4.8925781 5.6503906 C 4.7185781 5.5303906 4.5059062 5.4352813 4.2539062 5.3632812 C 4.0079063 5.2912813 3.741125 5.2558594 3.453125 5.2558594 C 3.255125 5.2558594 3.0722969 5.2763594 2.9042969 5.3183594 C 2.7422969 5.3543594 2.6004688 5.4178125 2.4804688 5.5078125 C 2.3604688 5.5918125 2.2653594 5.6980781 2.1933594 5.8300781 C 2.1273594 5.9620781 2.09375 6.1225938 2.09375 6.3085938 C 2.09375 6.5005938 2.1291719 6.6629219 2.2011719 6.7949219 C 2.2731719 6.9269219 2.374 7.0407187 2.5 7.1367188 C 2.632 7.2327187 2.7849844 7.3184844 2.9589844 7.3964844 C 3.1329844 7.4744844 3.3213906 7.556625 3.5253906 7.640625 C 3.7713906 7.742625 4.00275 7.8433125 4.21875 7.9453125 C 4.44075 8.0473125 4.6329219 8.1686406 4.7949219 8.3066406 C 4.9569219 8.4446406 5.0856406 8.6125469 5.1816406 8.8105469 C 5.2776406 9.0085469 5.3242188 9.2510625 5.3242188 9.5390625 C 5.3242188 10.103063 5.1264687 10.526594 4.7304688 10.808594 C 4.3404687 11.090594 3.8106719 11.230469 3.1386719 11.230469 C 2.8986719 11.230469 2.6784688 11.215547 2.4804688 11.185547 C 2.2824688 11.155547 2.1052188 11.120125 1.9492188 11.078125 C 1.7932187 11.030125 1.6626875 10.981594 1.5546875 10.933594 C 1.4466875 10.885594 1.3627344 10.844594 1.3027344 10.808594 L 1.5 10.277344 C 1.56 10.313344 1.6401875 10.354344 1.7421875 10.402344 C 1.8441875 10.450344 1.9655156 10.498875 2.1035156 10.546875 C 2.2415156 10.588875 2.3963125 10.624297 2.5703125 10.654297 C 2.7443125 10.684297 2.9364844 10.699219 3.1464844 10.699219 C 3.6324844 10.699219 4.01125 10.613453 4.28125 10.439453 C 4.55125 10.259453 4.6855469 9.970219 4.6855469 9.5742188 C 4.6855469 9.3462187 4.6407812 9.1578125 4.5507812 9.0078125 C 4.4667812 8.8518125 4.3529844 8.7230938 4.2089844 8.6210938 C 4.0649844 8.5130937 3.9008438 8.4235625 3.7148438 8.3515625 C 3.5288437 8.2735625 3.3329063 8.1914219 3.1289062 8.1074219 C 2.8709063 8.0054219 2.6395469 7.9009687 2.4355469 7.7929688 C 2.2315469 7.6849688 2.0580625 7.5655937 1.9140625 7.4335938 C 1.7700625 7.2955938 1.6600313 7.1388437 1.5820312 6.9648438 C 1.5100313 6.7908438 1.4726562 6.5875156 1.4726562 6.3535156 C 1.4726562 5.8195156 1.6499063 5.4146719 2.0039062 5.1386719 C 2.3579062 4.8626719 2.8504688 4.7246094 3.4804688 4.7246094 z M 5.8613281 6.4433594 L 6.4824219 6.4433594 C 6.5484219 6.7613594 6.6286094 7.1065156 6.7246094 7.4785156 C 6.8266094 7.8445156 6.9348281 8.2101719 7.0488281 8.5761719 C 7.1628281 8.9361719 7.276625 9.2775625 7.390625 9.6015625 C 7.510625 9.9255627 7.6226094 10.201688 7.7246094 10.429688 C 7.8386094 10.129687 7.9524062 9.8087969 8.0664062 9.4667969 C 8.1864063 9.1247969 8.2964375 8.7796406 8.3984375 8.4316406 C 8.5004375 8.0836406 8.5975 7.74225 8.6875 7.40625 C 8.7775 7.06425 8.855875 6.7433594 8.921875 6.4433594 L 9.4257812 6.4433594 C 9.4797812 6.7433594 9.5488125 7.06425 9.6328125 7.40625 C 9.7228125 7.74225 9.8179219 8.0874062 9.9199219 8.4414062 C 10.027922 8.7894062 10.139906 9.1345625 10.253906 9.4765625 C 10.373906 9.8185625 10.493281 10.139453 10.613281 10.439453 C 10.715281 10.211453 10.8235 9.9353283 10.9375 9.6113281 C 11.0515 9.2813281 11.165297 8.9361719 11.279297 8.5761719 C 11.393297 8.2101719 11.49775 7.8445156 11.59375 7.4785156 C 11.69575 7.1065156 11.779703 6.7613594 11.845703 6.4433594 L 12.421875 6.4433594 C 12.205875 7.3553594 11.968937 8.1893125 11.710938 8.9453125 C 11.458938 9.7013127 11.181 10.417703 10.875 11.095703 L 10.326172 11.095703 C 10.236172 10.885703 10.139109 10.652531 10.037109 10.394531 C 9.9411096 10.130531 9.8384688 9.8506406 9.7304688 9.5566406 C 9.6284688 9.2566406 9.5277812 8.9450937 9.4257812 8.6210938 C 9.3297812 8.2910937 9.2364844 7.9552813 9.1464844 7.6132812 C 9.0564844 7.9552813 8.9594219 8.2910937 8.8574219 8.6210938 C 8.7614219 8.9450937 8.6607344 9.2566406 8.5527344 9.5566406 C 8.4507344 9.8506406 8.3480938 10.130531 8.2460938 10.394531 C 8.1500937 10.652531 8.0567969 10.885703 7.9667969 11.095703 L 7.4101562 11.095703 C 7.1041562 10.417703 6.8205 9.7013127 6.5625 8.9453125 C 6.3105 8.1893125 6.0773281 7.3553594 5.8613281 6.4433594 z M 14.429688 8.8417969 L 14.697266 8.8417969 L 14.697266 12.896484 L 14.318359 12.896484 L 14.318359 9.421875 C 14.275459 9.468675 14.218638 9.5157063 14.148438 9.5664062 C 14.082138 9.6171062 14.005722 9.66805 13.919922 9.71875 C 13.834122 9.76555 13.743991 9.812575 13.650391 9.859375 C 13.556791 9.902275 13.462741 9.9375437 13.369141 9.9648438 L 13.257812 9.671875 C 13.491812 9.5899751 13.701466 9.4880812 13.884766 9.3632812 C 14.068066 9.2345813 14.250288 9.0601969 14.429688 8.8417969 z "
     id="path4" />
</svg>

<svg xmlns="http://www.w3.org/2000/svg" viewBox="0 0 16 16">
 <path d="m 1.6 0 c -0.886 0 -1.6 0.713 -1.6 1.6 l 0 12.801 c 0 0.886 0.713 1.6 1.6 1.6 l 12.801 0 c 0.886 0 1.6 -0.713 1.6 -1.6 l 0 -12.801 c 0 -0.886 -0.713 -1.6 -1.6 -1.6 l -12.801 0 z m 1.881 4.725 c 0.168 0 0.332 0.011 0.494 0.035 c 0.162 0.024 0.313 0.058 0.451 0.1 c 0.144 0.036 0.273 0.077 0.387 0.125 c 0.12 0.048 0.219 0.1 0.297 0.154 l -0.217 0.512 c -0.174 -0.12 -0.387 -0.215 -0.639 -0.287 c -0.246 -0.072 -0.513 -0.107 -0.801 -0.107 c -0.198 0 -0.381 0.02 -0.549 0.063 c -0.162 0.036 -0.304 0.099 -0.424 0.189 c -0.12 0.084 -0.215 0.19 -0.287 0.322 c -0.066 0.132 -0.1 0.293 -0.1 0.479 c 0 0.192 0.035 0.354 0.107 0.486 c 0.072 0.132 0.173 0.246 0.299 0.342 c 0.132 0.096 0.285 0.182 0.459 0.26 c 0.174 0.078 0.362 0.16 0.566 0.244 c 0.246 0.102 0.477 0.203 0.693 0.305 c 0.222 0.102 0.414 0.223 0.576 0.361 c 0.162 0.138 0.291 0.306 0.387 0.504 c 0.096 0.198 0.143 0.441 0.143 0.729 c 0 0.564 -0.198 0.988 -0.594 1.27 c -0.39 0.282 -0.92 0.422 -1.592 0.422 c -0.24 0 -0.46 -0.015 -0.658 -0.045 c -0.198 -0.03 -0.375 -0.065 -0.531 -0.107 c -0.156 -0.048 -0.287 -0.097 -0.395 -0.145 c -0.108 -0.048 -0.192 -0.089 -0.252 -0.125 l 0.197 -0.531 c 0.06 0.036 0.14 0.077 0.242 0.125 c 0.102 0.048 0.223 0.097 0.361 0.145 c 0.138 0.042 0.293 0.077 0.467 0.107 c 0.174 0.03 0.366 0.045 0.576 0.045 c 0.486 0 0.865 -0.086 1.135 -0.26 c 0.27 -0.18 0.404 -0.469 0.404 -0.865 c 0 -0.228 -0.045 -0.416 -0.135 -0.566 c -0.084 -0.156 -0.198 -0.285 -0.342 -0.387 c -0.144 -0.108 -0.308 -0.198 -0.494 -0.27 c -0.186 -0.078 -0.382 -0.16 -0.586 -0.244 c -0.258 -0.102 -0.489 -0.206 -0.693 -0.314 c -0.204 -0.108 -0.377 -0.227 -0.521 -0.359 c -0.144 -0.138 -0.254 -0.295 -0.332 -0.469 c -0.072 -0.174 -0.109 -0.377 -0.109 -0.611 c 0 -0.534 0.177 -0.939 0.531 -1.215 c 0.354 -0.276 0.847 -0.414 1.477 -0.414 z m 2.381 1.719 l 0.621 0 c 0.066 0.318 0.146 0.663 0.242 1.035 c 0.102 0.366 0.21 0.732 0.324 1.098 c 0.114 0.36 0.228 0.701 0.342 1.025 c 0.12 0.324 0.232 0.6 0.334 0.828 c 0.114 -0.3 0.228 -0.621 0.342 -0.963 c 0.12 -0.342 0.23 -0.687 0.332 -1.035 c 0.102 -0.348 0.199 -0.689 0.289 -1.025 c 0.09 -0.342 0.168 -0.663 0.234 -0.963 l 0.504 0 c 0.054 0.3 0.123 0.621 0.207 0.963 c 0.09 0.336 0.185 0.681 0.287 1.035 c 0.108 0.348 0.22 0.693 0.334 1.035 c 0.12 0.342 0.239 0.663 0.359 0.963 c 0.102 -0.228 0.21 -0.504 0.324 -0.828 c 0.114 -0.33 0.228 -0.675 0.342 -1.035 c 0.114 -0.366 0.218 -0.732 0.314 -1.098 c 0.102 -0.372 0.186 -0.717 0.252 -1.035 l 0.576 0 c -0.216 0.912 -0.453 1.746 -0.711 2.502 c -0.252 0.756 -0.53 1.472 -0.836 2.15 l -0.549 0 c -0.09 -0.21 -0.187 -0.443 -0.289 -0.701 c -0.096 -0.264 -0.199 -0.544 -0.307 -0.838 c -0.102 -0.3 -0.203 -0.612 -0.305 -0.936 c -0.096 -0.33 -0.189 -0.666 -0.279 -1.01 c -0.09 0.342 -0.187 0.678 -0.289 1.01 c -0.096 0.324 -0.197 0.636 -0.305 0.936 c -0.102 0.294 -0.205 0.574 -0.307 0.838 c -0.096 0.258 -0.189 0.491 -0.279 0.701 l -0.557 0 c -0.306 -0.678 -0.59 -1.394 -0.848 -2.15 c -0.252 -0.756 -0.485 -1.59 -0.701 -2.502 z m 8.568 2.398 l 0.268 0 l 0 4.055 l -0.379 0 l 0 -3.475 c -0.043 0.047 -0.1 0.094 -0.17 0.145 c -0.066 0.051 -0.143 0.102 -0.229 0.152 c -0.086 0.047 -0.176 0.094 -0.27 0.141 c -0.094 0.043 -0.188 0.078 -0.281 0.105 l -0.111 -0.293 c 0.234 -0.082 0.444 -0.184 0.627 -0.309 c 0.183 -0.129 0.366 -0.303 0.545 -0.521 z" style="fill:#353535;fill-opacity:1"/>
</svg>
